azure-patterns/svg-databox-gateway.svg

<svg xmlns="http://www.w3.org/2000/svg" viewBox="0 0 184 117">
                                
                            
<path fill-rule="evenodd" clip-rule="evenodd" d="M97.0992 68.2832C97.0992 80.2381 97.1299 116.657 97.1299 116.657C97.1299 116.657 63.4248 116.904 48.549 116.904C21.7357 116.904 0 95.1354 0 68.2832C0 41.4311 21.7357 19.6628 48.549 19.6628C75.3624 19.6628 97.0992 41.4311 97.0992 68.2832Z" fill="#3FADD3"></path>
<path fill-rule="evenodd" clip-rule="evenodd" d="M83.2789 77.2691C83.2789 75.567 81.9013 74.1862 80.2004 74.1862H22.9114H18.5355C16.1682 74.1862 14.9828 77.053 16.6565 78.7303L18.276 80.3509L31.7021 93.7988C33.193 95.2907 35.6086 95.2907 37.0995 93.7988C38.5892 92.3058 38.5892 89.8867 37.0995 88.3937L33.167 84.4567C31.6549 82.9424 32.7259 80.3509 34.8655 80.3509H80.2004C81.9013 80.3509 83.2789 78.9713 83.2789 77.2691Z" fill="white"></path>
<path fill-rule="evenodd" clip-rule="evenodd" d="M15.873 60.4959C15.873 62.198 17.2507 63.5776 18.9515 63.5776H76.2406H80.6165C82.9837 63.5776 84.1691 60.7108 82.4954 59.0347L80.876 57.4129L67.4498 43.9662C65.959 42.4743 63.5434 42.4743 62.0525 43.9662C60.5628 45.4592 60.5628 47.8783 62.0525 49.3713L65.9849 53.3083C67.497 54.8226 66.426 57.4129 64.2864 57.4129H18.9515C17.2507 57.4129 15.873 58.7938 15.873 60.4959Z" fill="white"></path>
<path fill-rule="evenodd" clip-rule="evenodd" d="M139.416 27.066C129.629 10.8458 111.856 0 91.5514 0C78.9332 0 67.2952 4.19089 57.9395 11.2545C78.0297 14.5488 94.6216 28.2259 102.054 46.6077C104.762 53.3027 106.266 60.6155 106.266 68.2839C106.266 75.4549 106.288 113.681 106.289 115.972C108.287 115.427 128.98 117 139.094 117C163.895 117 184 96.8653 184 72.0283C184 47.2999 164.068 27.2396 139.416 27.066Z" fill="#2773BA"></path>
</svg>

<svg xmlns="http://www.w3.org/2000/svg" viewBox="0 0 184 117"><path fill-rule="evenodd" clip-rule="evenodd" d="M97.1 68.283c0 11.955.03 48.374.03 48.374s-33.705.247-48.581.247C21.736 116.904 0 95.135 0 68.284 0 41.43 21.736 19.662 48.549 19.662s48.55 21.768 48.55 48.62z" fill="#3FADD3"/><path fill-rule="evenodd" clip-rule="evenodd" d="M83.279 77.27a3.08 3.08 0 0 0-3.079-3.084H18.535c-2.367 0-3.552 2.867-1.878 4.544l1.619 1.62L31.702 93.8a3.814 3.814 0 0 0 5.397 0 3.827 3.827 0 0 0 0-5.405l-3.932-3.937c-1.512-1.515-.441-4.106 1.698-4.106H80.2a3.08 3.08 0 0 0 3.079-3.082zM15.873 60.496a3.08 3.08 0 0 0 3.079 3.082h61.665c2.367 0 3.552-2.867 1.878-4.543l-1.619-1.622L67.45 43.966a3.814 3.814 0 0 0-5.398 0 3.827 3.827 0 0 0 0 5.405l3.933 3.937c1.512 1.515.441 4.105-1.699 4.105H18.951a3.08 3.08 0 0 0-3.078 3.083z" fill="#fff"/><path fill-rule="evenodd" clip-rule="evenodd" d="M139.416 27.066C129.629 10.846 111.856 0 91.551 0A55.585 55.585 0 0 0 57.94 11.255c20.09 3.294 36.682 16.97 44.114 35.353a57.671 57.671 0 0 1 4.212 21.676c0 7.17.022 45.397.023 47.688 1.998-.545 22.691 1.028 32.805 1.028C163.895 117 184 96.865 184 72.028c0-24.728-19.932-44.788-44.584-44.962z" fill="#2773BA"/></svg>
